dist/svg/object-based/wikis_24.svg

<svg xmlns="http://www.w3.org/2000/svg" viewBox="0 0 24 24"><path d="M20.97 5.65c-.01-.017-.023-.033-.035-.05-.702-.977-1.558-1.833-2.536-2.535-.017-.012-.033-.025-.05-.036C16.556 1.755 14.368 1 12 1 5.925 1 1 5.924 1 12c0 2.368.755 4.556 2.03 6.35.01.018.024.033.036.05.7.978 1.557 1.833 2.535 2.535.018.012.033.025.05.037C7.444 22.245 9.632 23 12 23c6.075 0 11-4.925 11-11 0-2.368-.756-4.556-2.03-6.35zM18.5 7.5c0 2.78-1.044 5.312-2.75 7.25L13 12l5.452-5.452c.03.314.048.63.048.952zm-13 9c0-2.78 1.044-5.312 2.75-7.25L11 12l-5.452 5.452c-.03-.314-.048-.63-.048-.952zM12 11L9.25 8.25c1.938-1.706 4.47-2.75 7.25-2.75.32 0 .638.018.952.048L12 11zm0 2l2.75 2.75c-1.938 1.706-4.47 2.75-7.25 2.75-.32 0-.638-.018-.952-.048L12 13zm5-8.97c-.167-.006-.33-.03-.5-.03-3.197 0-6.105 1.21-8.315 3.185L5.868 4.868C7.518 3.445 9.655 2.57 12 2.57c1.84 0 3.547.547 5 1.46zM4.868 5.87l2.317 2.317C5.21 10.395 4 13.303 4 16.5c0 .17.024.334.03.502C3.117 15.55 2.57 13.84 2.57 12c0-2.345.875-4.48 2.298-6.132zM7 19.968c.167.008.33.032.5.032 3.197 0 6.105-1.21 8.315-3.185l2.317 2.317c-1.65 1.423-3.786 2.297-6.132 2.297-1.84 0-3.547-.547-5-1.46zm12.132-1.836l-2.317-2.317C18.79 13.605 20 10.697 20 7.5c0-.17-.024-.334-.03-.502.914 1.453 1.46 3.16 1.46 5.002 0 2.345-.875 4.48-2.298 6.132z"/></svg>

<?xml version="1.0" encoding="iso-8859-1"?>
<!-- Generator: Adobe Illustrator 20.0.0, SVG Export Plug-In . SVG Version: 6.00 Build 0)  -->
<svg version="1.1" id="Layer_1" xmlns="http://www.w3.org/2000/svg" xmlns:xlink="http://www.w3.org/1999/xlink" x="0px" y="0px"
	 viewBox="0 0 24 24" style="enable-background:new 0 0 24 24;" xml:space="preserve">
<path d="M20.971,5.649c-0.012-0.016-0.024-0.032-0.036-0.048c-0.702-0.978-1.558-1.834-2.536-2.536
	c-0.016-0.012-0.032-0.025-0.049-0.036C16.556,1.756,14.368,1,12,1C5.925,1,1,5.924,1,12c0,2.368,0.755,4.556,2.029,6.351
	c0.012,0.017,0.025,0.032,0.037,0.049c0.701,0.978,1.557,1.833,2.535,2.535c0.017,0.012,0.032,0.025,0.049,0.037
	C7.444,22.245,9.632,23,12,23c6.075,0,11-4.925,11-11C23,9.632,22.244,7.444,20.971,5.649z M18.5,7.5
	c0,2.779-1.044,5.312-2.749,7.251L13,12l5.452-5.452C18.482,6.862,18.5,7.179,18.5,7.5z M5.5,16.5c0-2.779,1.044-5.312,2.749-7.251
	L11,12l-5.452,5.452C5.518,17.138,5.5,16.821,5.5,16.5z M12,11L9.249,8.249C11.188,6.544,13.721,5.5,16.5,5.5
	c0.321,0,0.638,0.018,0.952,0.048L12,11z M12,13l2.751,2.751C12.812,17.456,10.279,18.5,7.5,18.5c-0.321,0-0.638-0.018-0.952-0.048
	L12,13z M17,4.031C16.833,4.024,16.669,4,16.5,4c-3.197,0-6.105,1.21-8.315,3.185L5.868,4.868C7.519,3.445,9.655,2.571,12,2.571
	C13.84,2.571,15.547,3.117,17,4.031z M4.868,5.868l2.317,2.317C5.21,10.395,4,13.303,4,16.5c0,0.17,0.024,0.334,0.031,0.502
	C3.116,15.549,2.571,13.84,2.571,12C2.571,9.655,3.445,7.519,4.868,5.868z M7,19.969C7.167,19.976,7.331,20,7.5,20
	c3.197,0,6.105-1.21,8.315-3.185l2.317,2.317c-1.651,1.423-3.786,2.297-6.132,2.297C10.16,21.429,8.453,20.883,7,19.969z
	 M19.132,18.132l-2.317-2.317C18.79,13.605,20,10.697,20,7.5c0-0.17-0.024-0.334-0.031-0.502c0.915,1.453,1.46,3.161,1.46,5.002
	C21.429,14.345,20.555,16.481,19.132,18.132z"/>
</svg>
